public/icons/csharp.svg

<svg
  width="180"
  height="190"
  viewBox="0 0 180 190"
  fill="none"
  xmlns="http://www.w3.org/2000/svg"
>
  <g clip-path="url(#clip0_1812_34261)">
    <path
      d="M90.0001 189C93.0601 189 96.0701 188.15 98.7301 186.53L160.7 148.87C166.24 145.5 169.67 139.17 169.67 132.33V57.6201C169.67 50.8001 166.24 44.4601 160.7 41.0801L98.7301 3.42006C93.4001 0.180064 86.5801 0.200064 81.2801 3.42006L19.3101 41.1001C13.7701 44.4701 10.3201 50.8001 10.3201 57.6401V132.34C10.3201 138.1 12.7701 143.52 16.8701 147.09V147.12L81.2801 186.55C83.9201 188.15 86.9401 189 90.0001 189ZM90.6501 7.95006C92.6001 7.95006 95.0801 9.16006 96.7901 10.2101L157.55 47.4001C161.3 49.6801 163.42 56.2801 163.42 61.0301L162.79 132.33C162.79 137.08 159.59 141.35 155.84 143.63L95.4401 180.01C92.0101 182.1 89.2201 182.1 85.7801 180.01L24.5701 143.54C20.8201 141.26 17.8001 137.06 17.8001 132.33V58.6901C17.8001 53.9501 20.5301 49.0601 24.3001 46.7701L84.8801 10.2101C86.5801 9.17006 88.7001 7.95006 90.6501 7.95006Z"
      fill="#F2F1F0"></path>
    <path
      fill-rule="evenodd"
      clip-rule="evenodd"
      d="M97.9001 11.5298C95.4501 10.0298 92.7301 9.27979 90.0001 9.27979C87.2701 9.27979 84.5501 10.0398 82.1001 11.5298L25.9701 45.8598C20.9501 48.9298 17.8401 54.6798 17.8401 60.9298V129.03C17.8401 135.26 20.9401 141.03 25.9701 144.1L82.1001 178.43C84.5501 179.93 87.2701 180.68 90.0001 180.68C92.7301 180.68 95.4501 179.94 97.9001 178.43L154.03 144.1C159.05 141.03 162.16 135.26 162.16 129.03V60.9298C162.16 54.6998 159.06 48.9498 154.03 45.8598L97.9001 11.5298Z"
      fill="url(#paint0_linear_1812_34261)"></path>
    <path
      fill-rule="evenodd"
      clip-rule="evenodd"
      d="M90.0001 10.75C91.6801 10.75 93.5701 11.62 95.6301 12.87L154.1 48.41C157.75 50.63 160.16 54.9 160.16 59.73V130.21C160.16 135.03 157.75 139.31 154.1 141.53L95.6401 177.07C93.6801 178.26 91.7601 179.01 90.0101 179.01C88.2601 179.01 86.3401 178.26 84.3801 177.07L25.9001 141.54C23.8901 140.31 22.4401 139.11 21.4601 137.5C20.4801 135.9 19.8401 133.68 19.8401 130.22V59.74C19.8401 54.91 22.2501 50.64 25.9001 48.42L84.3601 12.88C86.4501 11.63 88.3101 10.75 90.0001 10.75ZM97.7101 180.5L156.17 144.96C161.09 141.97 164.15 136.35 164.15 130.22V59.74C164.15 53.61 161.09 47.99 156.17 45L97.7101 9.46C95.6001 8.18 92.8901 6.75 90.0001 6.75C87.1001 6.75 84.3901 8.19 82.3001 9.45H82.2901L23.8201 45C18.9001 47.99 15.8401 53.61 15.8401 59.74V130.22C15.8401 134.18 16.5801 137.17 18.0401 139.58C19.5001 141.98 21.5601 143.58 23.8201 144.95L82.2801 180.49C84.5001 181.84 87.1701 183.02 89.9901 183.02C92.8101 183.02 95.4901 181.85 97.7101 180.5Z"
      fill="url(#paint1_linear_1812_34261)"></path>
    <g filter="url(#filter0_ddddd_1812_34261)">
      <path
        d="M27.5913 69.2603V120.734C27.5913 127.104 30.9881 132.993 36.5068 136.176L81.0845 161.915C86.6032 165.102 93.3969 165.102 98.9156 161.915L143.493 136.176C149.012 132.989 152.409 127.104 152.409 120.734V69.2603C152.409 62.8902 149.012 57.0014 143.493 53.8186L98.9156 28.0838C93.3969 24.8965 86.6032 24.8965 81.0845 28.0838L36.5068 53.8186C30.9881 57.0059 27.5913 62.8902 27.5913 69.2603Z"
        fill="url(#paint2_linear_1812_34261)"></path>
    </g>
    <g filter="url(#filter1_ddddd_1812_34261)">
      <path
        d="M58.7957 86.0866V103.918C58.7957 105.099 59.2637 106.236 60.1018 107.069C60.9399 107.907 62.0721 108.375 63.2534 108.375C64.4347 108.375 65.5715 107.907 66.4051 107.069C67.2431 106.231 67.7112 105.099 67.7112 103.918C67.7112 102.736 68.1793 101.6 69.0173 100.766C69.8554 99.9279 70.9877 99.4599 72.169 99.4599C73.3503 99.4599 74.487 99.9279 75.3206 100.766C76.1587 101.604 76.6267 102.736 76.6267 103.918C76.6267 107.466 75.2181 110.867 72.7084 113.373C70.1986 115.882 66.7974 117.291 63.2534 117.291C59.7095 117.291 56.3038 115.882 53.7985 113.373C51.2888 110.863 49.8801 107.462 49.8801 103.918V86.0866C49.8801 82.5382 51.2888 79.1369 53.7985 76.6316C56.3082 74.1219 59.7095 72.7133 63.2534 72.7133C66.7974 72.7133 70.2031 74.1219 72.7084 76.6316C75.2136 79.1414 76.6267 82.5426 76.6267 86.0866C76.6267 87.2679 76.1587 88.4046 75.3206 89.2382C74.4825 90.0763 73.3503 90.5443 72.169 90.5443C70.9877 90.5443 69.8509 90.0763 69.0173 89.2382C68.1793 88.4001 67.7112 87.2679 67.7112 86.0866C67.7112 84.9053 67.2431 83.7685 66.4051 82.9349C65.567 82.0969 64.4347 81.6288 63.2534 81.6288C62.0721 81.6288 60.9354 82.0969 60.1018 82.9349C59.2637 83.773 58.7957 84.9053 58.7957 86.0866ZM130.12 103.918C130.12 105.099 129.652 106.236 128.814 107.069C127.976 107.907 126.843 108.375 125.662 108.375H121.204V112.833C121.204 114.014 120.736 115.151 119.898 115.985C119.06 116.818 117.928 117.291 116.747 117.291C115.565 117.291 114.429 116.823 113.595 115.985C112.761 115.147 112.289 114.014 112.289 112.833V108.375H103.373V112.833C103.373 114.014 102.905 115.151 102.067 115.985C101.229 116.818 100.097 117.291 98.9156 117.291C97.7343 117.291 96.5975 116.823 95.7639 115.985C94.9259 115.147 94.4578 114.014 94.4578 112.833V108.375H90C88.8187 108.375 87.682 107.907 86.8484 107.069C86.0103 106.231 85.5423 105.099 85.5423 103.918C85.5423 102.736 86.0103 101.6 86.8484 100.766C87.6865 99.9279 88.8187 99.4599 90 99.4599H94.4578V90.5443H90C88.8187 90.5443 87.682 90.0763 86.8484 89.2382C86.0103 88.4001 85.5423 87.2679 85.5423 86.0866C85.5423 84.9053 86.0103 83.7685 86.8484 82.9349C87.6865 82.0969 88.8187 81.6288 90 81.6288H94.4578V77.171C94.4578 75.9897 94.9259 74.853 95.7639 74.0194C96.602 73.1813 97.7343 72.7133 98.9156 72.7133C100.097 72.7133 101.234 73.1813 102.067 74.0194C102.905 74.8574 103.373 75.9897 103.373 77.171V81.6288H112.289V77.171C112.289 75.9897 112.757 74.853 113.595 74.0194C114.433 73.1813 115.565 72.7133 116.747 72.7133C117.928 72.7133 119.065 73.1813 119.898 74.0194C120.732 74.8574 121.204 75.9897 121.204 77.171V81.6288H125.662C126.843 81.6288 127.98 82.0969 128.814 82.9349C129.647 83.773 130.12 84.9053 130.12 86.0866C130.12 87.2679 129.652 88.4046 128.814 89.2382C127.976 90.0763 126.843 90.5443 125.662 90.5443H121.204V99.4599H125.662C126.843 99.4599 127.98 99.9279 128.814 100.766C129.647 101.604 130.12 102.736 130.12 103.918ZM112.289 90.5443H103.373V99.4599H112.289V90.5443Z"
        fill="white"></path>
    </g>
  </g>
  <defs>
    <filter
      id="filter0_ddddd_1812_34261"
      x="21.5913"
      y="23.6934"
      width="149.817"
      height="181.612"
      filterUnits="userSpaceOnUse"
      color-interpolation-filters="sRGB"
    >
      <feFlood flood-opacity="0" result="BackgroundImageFix"></feFlood>
      <feColorMatrix
        in="SourceAlpha"
        type="matrix"
        values="0 0 0 0 0 0 0 0 0 0 0 0 0 0 0 0 0 0 127 0"
        result="hardAlpha"></feColorMatrix>
      <feOffset></feOffset>
      <feColorMatrix
        type="matrix"
        values="0 0 0 0 0 0 0 0 0 0 0 0 0 0 0 0 0 0 0.1 0"></feColorMatrix>
      <feBlend
        mode="normal"
        in2="BackgroundImageFix"
        result="effect1_dropShadow_1812_34261"></feBlend>
      <feColorMatrix
        in="SourceAlpha"
        type="matrix"
        values="0 0 0 0 0 0 0 0 0 0 0 0 0 0 0 0 0 0 127 0"
        result="hardAlpha"></feColorMatrix>
      <feOffset dy="2"></feOffset>
      <feGaussianBlur stdDeviation="2"></feGaussianBlur>
      <feColorMatrix
        type="matrix"
        values="0 0 0 0 0 0 0 0 0 0 0 0 0 0 0 0 0 0 0.1 0"></feColorMatrix>
      <feBlend
        mode="normal"
        in2="effect1_dropShadow_1812_34261"
        result="effect2_dropShadow_1812_34261"></feBlend>
      <feColorMatrix
        in="SourceAlpha"
        type="matrix"
        values="0 0 0 0 0 0 0 0 0 0 0 0 0 0 0 0 0 0 127 0"
        result="hardAlpha"></feColorMatrix>
      <feOffset dx="2" dy="7"></feOffset>
      <feGaussianBlur stdDeviation="3.5"></feGaussianBlur>
      <feColorMatrix
        type="matrix"
        values="0 0 0 0 0 0 0 0 0 0 0 0 0 0 0 0 0 0 0.09 0"></feColorMatrix>
      <feBlend
        mode="normal"
        in2="effect2_dropShadow_1812_34261"
        result="effect3_dropShadow_1812_34261"></feBlend>
      <feColorMatrix
        in="SourceAlpha"
        type="matrix"
        values="0 0 0 0 0 0 0 0 0 0 0 0 0 0 0 0 0 0 127 0"
        result="hardAlpha"></feColorMatrix>
      <feOffset dx="4" dy="16"></feOffset>
      <feGaussianBlur stdDeviation="5"></feGaussianBlur>
      <feColorMatrix
        type="matrix"
        values="0 0 0 0 0 0 0 0 0 0 0 0 0 0 0 0 0 0 0.05 0"></feColorMatrix>
      <feBlend
        mode="normal"
        in2="effect3_dropShadow_1812_34261"
        result="effect4_dropShadow_1812_34261"></feBlend>
      <feColorMatrix
        in="SourceAlpha"
        type="matrix"
        values="0 0 0 0 0 0 0 0 0 0 0 0 0 0 0 0 0 0 127 0"
        result="hardAlpha"></feColorMatrix>
      <feOffset dx="7" dy="29"></feOffset>
      <feGaussianBlur stdDeviation="6"></feGaussianBlur>
      <feColorMatrix
        type="matrix"
        values="0 0 0 0 0 0 0 0 0 0 0 0 0 0 0 0 0 0 0.01 0"></feColorMatrix>
      <feBlend
        mode="normal"
        in2="effect4_dropShadow_1812_34261"
        result="effect5_dropShadow_1812_34261"></feBlend>
      <feBlend
        mode="normal"
        in="SourceGraphic"
        in2="effect5_dropShadow_1812_34261"
        result="shape"></feBlend>
    </filter>
    <filter
      id="filter1_ddddd_1812_34261"
      x="43.8801"
      y="71.7133"
      width="92.2397"
      height="66.5777"
      filterUnits="userSpaceOnUse"
      color-interpolation-filters="sRGB"
    >
      <feFlood flood-opacity="0" result="BackgroundImageFix"></feFlood>
      <feColorMatrix
        in="SourceAlpha"
        type="matrix"
        values="0 0 0 0 0 0 0 0 0 0 0 0 0 0 0 0 0 0 127 0"
        result="hardAlpha"></feColorMatrix>
      <feOffset></feOffset>
      <feColorMatrix
        type="matrix"
        values="0 0 0 0 0 0 0 0 0 0 0 0 0 0 0 0 0 0 0.1 0"></feColorMatrix>
      <feBlend
        mode="normal"
        in2="BackgroundImageFix"
        result="effect1_dropShadow_1812_34261"></feBlend>
      <feColorMatrix
        in="SourceAlpha"
        type="matrix"
        values="0 0 0 0 0 0 0 0 0 0 0 0 0 0 0 0 0 0 127 0"
        result="hardAlpha"></feColorMatrix>
      <feOffset dy="1"></feOffset>
      <feGaussianBlur stdDeviation="1"></feGaussianBlur>
      <feColorMatrix
        type="matrix"
        values="0 0 0 0 0 0 0 0 0 0 0 0 0 0 0 0 0 0 0.1 0"></feColorMatrix>
      <feBlend
        mode="normal"
        in2="effect1_dropShadow_1812_34261"
        result="effect2_dropShadow_1812_34261"></feBlend>
      <feColorMatrix
        in="SourceAlpha"
        type="matrix"
        values="0 0 0 0 0 0 0 0 0 0 0 0 0 0 0 0 0 0 127 0"
        result="hardAlpha"></feColorMatrix>
      <feOffset dy="4"></feOffset>
      <feGaussianBlur stdDeviation="2"></feGaussianBlur>
      <feColorMatrix
        type="matrix"
        values="0 0 0 0 0 0 0 0 0 0 0 0 0 0 0 0 0 0 0.09 0"></feColorMatrix>
      <feBlend
        mode="normal"
        in2="effect2_dropShadow_1812_34261"
        result="effect3_dropShadow_1812_34261"></feBlend>
      <feColorMatrix
        in="SourceAlpha"
        type="matrix"
        values="0 0 0 0 0 0 0 0 0 0 0 0 0 0 0 0 0 0 127 0"
        result="hardAlpha"></feColorMatrix>
      <feOffset dy="9"></feOffset>
      <feGaussianBlur stdDeviation="2.5"></feGaussianBlur>
      <feColorMatrix
        type="matrix"
        values="0 0 0 0 0 0 0 0 0 0 0 0 0 0 0 0 0 0 0.05 0"></feColorMatrix>
      <feBlend
        mode="normal"
        in2="effect3_dropShadow_1812_34261"
        result="effect4_dropShadow_1812_34261"></feBlend>
      <feColorMatrix
        in="SourceAlpha"
        type="matrix"
        values="0 0 0 0 0 0 0 0 0 0 0 0 0 0 0 0 0 0 127 0"
        result="hardAlpha"></feColorMatrix>
      <feOffset dy="15"></feOffset>
      <feGaussianBlur stdDeviation="3"></feGaussianBlur>
      <feColorMatrix
        type="matrix"
        values="0 0 0 0 0 0 0 0 0 0 0 0 0 0 0 0 0 0 0.01 0"></feColorMatrix>
      <feBlend
        mode="normal"
        in2="effect4_dropShadow_1812_34261"
        result="effect5_dropShadow_1812_34261"></feBlend>
      <feBlend
        mode="normal"
        in="SourceGraphic"
        in2="effect5_dropShadow_1812_34261"
        result="shape"></feBlend>
    </filter>
    <linearGradient
      id="paint0_linear_1812_34261"
      x1="44.3292"
      y1="22.7978"
      x2="197.531"
      y2="204.708"
      gradientUnits="userSpaceOnUse"
    >
      <stop offset="0.00520833" stop-color="white"></stop>
      <stop offset="1" stop-color="#D3C7FF"></stop>
    </linearGradient>
    <linearGradient
      id="paint1_linear_1812_34261"
      x1="30.4062"
      y1="45.2832"
      x2="109.459"
      y2="173.862"
      gradientUnits="userSpaceOnUse"
    >
      <stop offset="0" stop-color="#927BE5"></stop>
      <stop offset="1" stop-color="#512BD4"></stop>
    </linearGradient>
    <linearGradient
      id="paint2_linear_1812_34261"
      x1="39.8502"
      y1="55.9944"
      x2="100.03"
      y2="160.752"
      gradientUnits="userSpaceOnUse"
    >
      <stop offset="0" stop-color="#927BE5"></stop>
      <stop offset="1" stop-color="#512BD4"></stop>
    </linearGradient>
    <clipPath id="clip0_1812_34261">
      <rect width="180" height="190" fill="white"></rect>
    </clipPath>
  </defs>
</svg>

<svg xmlns="http://www.w3.org/2000/svg" fill="none" viewBox="0 0 180 190"><g clip-path="url(#clip0_1812_34261)"><path fill="#f2f1f0" d="M90 189c3.06 0 6.07-.85 8.73-2.47l61.97-37.66c5.54-3.37 8.97-9.7 8.97-16.54V57.62c0-6.82-3.43-13.16-8.97-16.54L98.73 3.42a16.9 16.9 0 0 0-17.45 0L19.31 41.1c-5.54 3.37-8.99 9.7-8.99 16.54v74.7a19.6 19.6 0 0 0 6.55 14.75v.03l64.41 39.43A17 17 0 0 0 90 189m.65-181.05c1.95 0 4.43 1.21 6.14 2.26l60.76 37.19c3.75 2.28 5.87 8.88 5.87 13.63l-.63 71.3c0 4.75-3.2 9.02-6.95 11.3l-60.4 36.38c-3.43 2.09-6.22 2.09-9.66 0l-61.21-36.47c-3.75-2.28-6.77-6.48-6.77-11.21V58.69c0-4.74 2.73-9.63 6.5-11.92l60.58-36.56c1.7-1.04 3.82-2.26 5.77-2.26"/><path fill="url(#paint0_linear_1812_34261)" fill-rule="evenodd" d="M97.9 11.53A15 15 0 0 0 90 9.28c-2.73 0-5.45.76-7.9 2.25L25.97 45.86c-5.02 3.07-8.13 8.82-8.13 15.07v68.1c0 6.23 3.1 12 8.13 15.07l56.13 34.33a15 15 0 0 0 15.8 0l56.13-34.33c5.02-3.07 8.13-8.84 8.13-15.07v-68.1c0-6.23-3.1-11.98-8.13-15.07z" clip-rule="evenodd"/><path fill="url(#paint1_linear_1812_34261)" fill-rule="evenodd" d="M90 10.75c1.68 0 3.57.87 5.63 2.12l58.47 35.54c3.65 2.22 6.06 6.49 6.06 11.32v70.48c0 4.82-2.41 9.1-6.06 11.32l-58.46 35.54c-1.96 1.19-3.88 1.94-5.63 1.94s-3.67-.75-5.63-1.94L25.9 141.54c-2.01-1.23-3.46-2.43-4.44-4.04s-1.62-3.82-1.62-7.28V59.74c0-4.83 2.41-9.1 6.06-11.32l58.46-35.54c2.09-1.25 3.95-2.13 5.64-2.13m7.71 169.75 58.46-35.54c4.92-2.99 7.98-8.61 7.98-14.74V59.74c0-6.13-3.06-11.75-7.98-14.74L97.71 9.46C95.6 8.18 92.89 6.75 90 6.75c-2.9 0-5.61 1.44-7.7 2.7h-.01L23.82 45c-4.92 2.99-7.98 8.61-7.98 14.74v70.48c0 3.96.74 6.95 2.2 9.36s3.52 4 5.78 5.37l58.46 35.54c2.22 1.35 4.89 2.53 7.71 2.53s5.5-1.17 7.72-2.52" clip-rule="evenodd"/><g filter="url(#filter0_ddddd_1812_34261)"><path fill="url(#paint2_linear_1812_34261)" d="M27.6 69.26v51.47c0 6.37 3.39 12.26 8.9 15.45l44.58 25.73a17.8 17.8 0 0 0 17.84 0l44.57-25.73a17.8 17.8 0 0 0 8.92-15.45V69.26c0-6.37-3.4-12.26-8.92-15.44L98.92 28.08a17.8 17.8 0 0 0-17.84 0L36.51 53.82a17.8 17.8 0 0 0-8.92 15.44"/></g><g filter="url(#filter1_ddddd_1812_34261)"><path fill="#fff" d="M58.8 86.09v17.83a4.44 4.44 0 0 0 7.6 3.15 4.5 4.5 0 0 0 1.31-3.15 4.45 4.45 0 0 1 7.61-3.15c.84.83 1.3 1.97 1.3 3.15a13.36 13.36 0 0 1-22.82 9.45 13.4 13.4 0 0 1-3.92-9.45V86.09a13.36 13.36 0 0 1 22.83-9.46 13.4 13.4 0 0 1 3.92 9.46 4.45 4.45 0 0 1-7.61 3.15 4.5 4.5 0 0 1-1.3-3.15 4.45 4.45 0 0 0-7.62-3.16 4.5 4.5 0 0 0-1.3 3.16m71.32 17.83a4.44 4.44 0 0 1-4.46 4.45h-4.46v4.46a4.45 4.45 0 1 1-8.91 0v-4.45h-8.92v4.45a4.45 4.45 0 1 1-8.91 0v-4.45H90a4.45 4.45 0 0 1-3.15-7.61A4.5 4.5 0 0 1 90 99.46h4.46v-8.92H90a4.45 4.45 0 0 1-3.15-7.6A4.5 4.5 0 0 1 90 81.62h4.46v-4.46a4.45 4.45 0 0 1 7.6-3.15 4.5 4.5 0 0 1 1.31 3.15v4.46h8.92v-4.46a4.45 4.45 0 0 1 7.6-3.15 4.5 4.5 0 0 1 1.31 3.15v4.46h4.46a4.45 4.45 0 1 1 0 8.91h-4.46v8.92h4.46a4.45 4.45 0 0 1 4.46 4.46m-17.83-13.38h-8.92v8.92h8.92z"/></g></g><defs><linearGradient id="paint0_linear_1812_34261" x1="44.33" x2="197.53" y1="22.8" y2="204.71" gradientUnits="userSpaceOnUse"><stop offset=".01" stop-color="#fff"/><stop offset="1" stop-color="#d3c7ff"/></linearGradient><linearGradient id="paint1_linear_1812_34261" x1="30.41" x2="109.46" y1="45.28" y2="173.86" gradientUnits="userSpaceOnUse"><stop offset="0" stop-color="#927be5"/><stop offset="1" stop-color="#512bd4"/></linearGradient><linearGradient id="paint2_linear_1812_34261" x1="39.85" x2="100.03" y1="55.99" y2="160.75" gradientUnits="userSpaceOnUse"><stop offset="0" stop-color="#927be5"/><stop offset="1" stop-color="#512bd4"/></linearGradient><filter id="filter0_ddddd_1812_34261" width="149.82" height="181.61" x="21.59" y="23.69" color-interpolation-filters="sRGB" filterUnits="userSpaceOnUse"><feFlood flood-opacity="0" result="BackgroundImageFix"/><feColorMatrix in="SourceAlpha" result="hardAlpha" values="0 0 0 0 0 0 0 0 0 0 0 0 0 0 0 0 0 0 127 0"/><feOffset/><feColorMatrix values="0 0 0 0 0 0 0 0 0 0 0 0 0 0 0 0 0 0 0.1 0"/><feBlend in2="BackgroundImageFix" result="effect1_dropShadow_1812_34261"/><feColorMatrix in="SourceAlpha" result="hardAlpha" values="0 0 0 0 0 0 0 0 0 0 0 0 0 0 0 0 0 0 127 0"/><feOffset dy="2"/><feGaussianBlur stdDeviation="2"/><feColorMatrix values="0 0 0 0 0 0 0 0 0 0 0 0 0 0 0 0 0 0 0.1 0"/><feBlend in2="effect1_dropShadow_1812_34261" result="effect2_dropShadow_1812_34261"/><feColorMatrix in="SourceAlpha" result="hardAlpha" values="0 0 0 0 0 0 0 0 0 0 0 0 0 0 0 0 0 0 127 0"/><feOffset dx="2" dy="7"/><feGaussianBlur stdDeviation="3.5"/><feColorMatrix values="0 0 0 0 0 0 0 0 0 0 0 0 0 0 0 0 0 0 0.09 0"/><feBlend in2="effect2_dropShadow_1812_34261" result="effect3_dropShadow_1812_34261"/><feColorMatrix in="SourceAlpha" result="hardAlpha" values="0 0 0 0 0 0 0 0 0 0 0 0 0 0 0 0 0 0 127 0"/><feOffset dx="4" dy="16"/><feGaussianBlur stdDeviation="5"/><feColorMatrix values="0 0 0 0 0 0 0 0 0 0 0 0 0 0 0 0 0 0 0.05 0"/><feBlend in2="effect3_dropShadow_1812_34261" result="effect4_dropShadow_1812_34261"/><feColorMatrix in="SourceAlpha" result="hardAlpha" values="0 0 0 0 0 0 0 0 0 0 0 0 0 0 0 0 0 0 127 0"/><feOffset dx="7" dy="29"/><feGaussianBlur stdDeviation="6"/><feColorMatrix values="0 0 0 0 0 0 0 0 0 0 0 0 0 0 0 0 0 0 0.01 0"/><feBlend in2="effect4_dropShadow_1812_34261" result="effect5_dropShadow_1812_34261"/><feBlend in="SourceGraphic" in2="effect5_dropShadow_1812_34261" result="shape"/></filter><filter id="filter1_ddddd_1812_34261" width="92.24" height="66.58" x="43.88" y="71.71" color-interpolation-filters="sRGB" filterUnits="userSpaceOnUse"><feFlood flood-opacity="0" result="BackgroundImageFix"/><feColorMatrix in="SourceAlpha" result="hardAlpha" values="0 0 0 0 0 0 0 0 0 0 0 0 0 0 0 0 0 0 127 0"/><feOffset/><feColorMatrix values="0 0 0 0 0 0 0 0 0 0 0 0 0 0 0 0 0 0 0.1 0"/><feBlend in2="BackgroundImageFix" result="effect1_dropShadow_1812_34261"/><feColorMatrix in="SourceAlpha" result="hardAlpha" values="0 0 0 0 0 0 0 0 0 0 0 0 0 0 0 0 0 0 127 0"/><feOffset dy="1"/><feGaussianBlur stdDeviation="1"/><feColorMatrix values="0 0 0 0 0 0 0 0 0 0 0 0 0 0 0 0 0 0 0.1 0"/><feBlend in2="effect1_dropShadow_1812_34261" result="effect2_dropShadow_1812_34261"/><feColorMatrix in="SourceAlpha" result="hardAlpha" values="0 0 0 0 0 0 0 0 0 0 0 0 0 0 0 0 0 0 127 0"/><feOffset dy="4"/><feGaussianBlur stdDeviation="2"/><feColorMatrix values="0 0 0 0 0 0 0 0 0 0 0 0 0 0 0 0 0 0 0.09 0"/><feBlend in2="effect2_dropShadow_1812_34261" result="effect3_dropShadow_1812_34261"/><feColorMatrix in="SourceAlpha" result="hardAlpha" values="0 0 0 0 0 0 0 0 0 0 0 0 0 0 0 0 0 0 127 0"/><feOffset dy="9"/><feGaussianBlur stdDeviation="2.5"/><feColorMatrix values="0 0 0 0 0 0 0 0 0 0 0 0 0 0 0 0 0 0 0.05 0"/><feBlend in2="effect3_dropShadow_1812_34261" result="effect4_dropShadow_1812_34261"/><feColorMatrix in="SourceAlpha" result="hardAlpha" values="0 0 0 0 0 0 0 0 0 0 0 0 0 0 0 0 0 0 127 0"/><feOffset dy="15"/><feGaussianBlur stdDeviation="3"/><feColorMatrix values="0 0 0 0 0 0 0 0 0 0 0 0 0 0 0 0 0 0 0.01 0"/><feBlend in2="effect4_dropShadow_1812_34261" result="effect5_dropShadow_1812_34261"/><feBlend in="SourceGraphic" in2="effect5_dropShadow_1812_34261" result="shape"/></filter><clipPath id="clip0_1812_34261"><path fill="#fff" d="M0 0h180v190H0z"/></clipPath></defs></svg>
